icon-svg/ups-dlv.svg

<svg xmlns="http://www.w3.org/2000/svg" viewBox="0 0 24 24"><path fill="#44739e" d="M4.918 13.614a5.17 5.17 0 0 0 1.831 4.127 36 36 0 0 0 5.253 2.76 32 32 0 0 0 5.253-2.76 5.07 5.07 0 0 0 1.831-4.127V4.631h.022a33 33 0 0 0-2.999-.154c-3.775 0-7.835.816-11.19 3.884Zm11.94-4.943a2.4 2.4 0 0 1 1.499.44v1.193a1.84 1.84 0 0 0-1.214-.552c-.375 0-.794.177-.794.641-.023.485.4.684.883.993 1.125.662 1.346 1.258 1.323 2.053a1.83 1.83 0 0 1-1.964 1.809 3.2 3.2 0 0 1-1.5-.419V13.57a2.15 2.15 0 0 0 1.3.552.727.727 0 0 0 .817-.751c0-.419-.243-.662-.839-1.015-1.126-.662-1.325-1.191-1.347-1.92a1.8 1.8 0 0 1 1.836-1.765m-6.489.484a3.3 3.3 0 0 1 1.832-.484c1.634 0 2.517 1.235 2.517 3.198 0 1.987-.861 3.333-2.385 3.333a3.3 3.3 0 0 1-.617-.066l.022 2.869h-1.369Zm-4.745 3.929V8.805h1.368v4.326c0 .375.088.949.707.949a1.1 1.1 0 0 0 .64-.177V8.805h1.346v5.898a3.64 3.64 0 0 1-2.053.551c-1.347 0-2.008-.727-2.008-2.163Zm6.378-11.077a17.4 17.4 0 0 0-8.431 1.911v9.79a6.35 6.35 0 0 0 2.3 5.09A38.7 38.7 0 0 0 12.002 22a37 37 0 0 0 6.126-3.225 6.29 6.29 0 0 0 2.3-5.09V3.918a17.4 17.4 0 0 0-8.426-1.911m7.836 11.629a5.84 5.84 0 0 1-2.099 4.679 36.3 36.3 0 0 1-5.714 2.985 38.7 38.7 0 0 1-5.717-2.999 5.83 5.83 0 0 1-2.099-4.679v-9.19a16.5 16.5 0 0 1 7.814-1.743 16.3 16.3 0 0 1 7.813 1.743Zm-7.659.486c.772 0 1.148-.728 1.148-2.208 0-1.522-.331-2.14-1.126-2.14a1.5 1.5 0 0 0-.485.088l.022 4.172a1.1 1.1 0 0 0 .441.088M12.002 22"/></svg>

<?xml version="1.0" encoding="UTF-8"?>
<svg width="24px" fill="#44739e" height="24px" viewBox="0 0 24 24" version="1.1" xmlns="http://www.w3.org/2000/svg" xmlns:xlink="http://www.w3.org/1999/xlink">
            <path d="M 4.914,13.611 A 5.166,5.166 0 0 0 6.746,17.74 35.744,35.744 0 0 0 12,20.5 31.953,31.953 0 0 0 17.255,17.74 5.069,5.069 0 0 0 19.087,13.611 V 4.625 h 0.022 c -0.971,-0.088 -1.965,-0.154 -3,-0.154 -3.776,0 -7.838,0.816 -11.194,3.885 z M 16.858,8.666 a 2.409,2.409 0 0 1 1.5,0.441 V 10.3 A 1.836,1.836 0 0 0 17.143,9.748 c -0.375,0 -0.794,0.177 -0.794,0.641 -0.023,0.485 0.4,0.684 0.883,0.993 1.126,0.663 1.347,1.259 1.324,2.054 a 1.828,1.828 0 0 1 -1.965,1.81 3.192,3.192 0 0 1 -1.5,-0.419 v -1.26 a 2.15,2.15 0 0 0 1.3,0.552 0.727,0.727 0 0 0 0.817,-0.751 c 0,-0.419 -0.243,-0.662 -0.839,-1.015 -1.126,-0.663 -1.325,-1.192 -1.347,-1.921 v 0 A 1.8,1.8 0 0 1 16.858,8.666 Z M 10.367,9.151 A 3.323,3.323 0 0 1 12.2,8.666 c 1.634,0 2.517,1.236 2.517,3.2 0,1.987 -0.861,3.334 -2.385,3.334 a 3.254,3.254 0 0 1 -0.618,-0.066 l 0.022,2.87 H 10.367 Z M 5.62,13.081 V 8.8 h 1.369 v 4.328 c 0,0.375 0.088,0.949 0.707,0.949 A 1.1,1.1 0 0 0 8.336,13.9 V 8.8 h 1.347 v 5.9 A 3.642,3.642 0 0 1 7.629,15.252 C 6.282,15.252 5.62,14.524 5.62,13.088 Z M 12,2 A 17.4,17.4 0 0 0 3.567,3.912 v 9.793 a 6.353,6.353 0 0 0 2.3,5.092 A 38.729,38.729 0 0 0 12,22 a 37.191,37.191 0 0 0 6.129,-3.226 6.285,6.285 0 0 0 2.3,-5.092 V 3.912 A 17.4,17.4 0 0 0 12,2 Z m 7.839,11.633 a 5.835,5.835 0 0 1 -2.1,4.681 36.3,36.3 0 0 1 -5.716,2.986 38.711,38.711 0 0 1 -5.718,-3 v 0 a 5.833,5.833 0 0 1 -2.1,-4.681 V 4.426 a 16.541,16.541 0 0 1 7.816,-1.744 16.282,16.282 0 0 1 7.816,1.744 z m -7.661,0.486 c 0.772,0 1.148,-0.728 1.148,-2.208 0,-1.523 -0.331,-2.141 -1.126,-2.141 a 1.471,1.471 0 0 0 -0.486,0.088 l 0.022,4.173 a 1.111,1.111 0 0 0 0.442,0.088 z M 12,22 v 0 z"/>

</svg>
